X: 1
T: Jack's Health	% Dance name
P: Bolt the Door	% Tune name
M: 6/8
L: 1/8
K: Am
g2f |:\
"Am"ecA A2B | "Em"G2E  E2B | "Am"c2A  "G"B2G | "Am"A2B c2d |\
"Am"ecA A2B | "Em"G2E  E2B | "Am"c2A  "G"B2G |1"Am"A3  g2f :|2"Am"A3 A2B ||
 "C"cBA G2d | "C"e3 "G"d2B | "Am"c2A "Em"B2G | "Am"A2B c2d |\
"Am"ecA A2d | "C"e3 "G"d2B |  "F"c2A     B2A |  "G"G3  g2e |
 "G"dBG G2d | "C"e3 "G"d2B | "Am"c2A "Em"B2G | "Am"A2B c2d |\
"Am"ecA A2d | "F"e2a  a2^f |  "G"g2e     d2B | "Am"A3 |]
